shell/app/images/empty-white-bg.svg

<?xml version="1.0" encoding="UTF-8"?>
<svg width="96px" height="96px" viewBox="0 0 96 96" version="1.1" xmlns="http://www.w3.org/2000/svg" xmlns:xlink="http://www.w3.org/1999/xlink">
    <title>中占位符/应用浅色背景</title>
    <defs>
        <linearGradient x1="50%" y1="0.491695804%" x2="50%" y2="100%" id="linearGradient-1">
            <stop stop-color="#302647" stop-opacity="0" offset="0%"></stop>
            <stop stop-color="#302647" stop-opacity="0.3" offset="100%"></stop>
        </linearGradient>
        <linearGradient x1="100%" y1="50%" x2="0%" y2="50%" id="linearGradient-2">
            <stop stop-color="#302647" stop-opacity="0.04" offset="0%"></stop>
            <stop stop-color="#302647" stop-opacity="0.4" offset="100%"></stop>
        </linearGradient>
        <linearGradient x1="100%" y1="50%" x2="0%" y2="50%" id="linearGradient-3">
            <stop stop-color="#FFFFFF" stop-opacity="0" offset="0%"></stop>
            <stop stop-color="#FFFFFF" stop-opacity="0.2" offset="100%"></stop>
        </linearGradient>
        <linearGradient x1="45.694774%" y1="38.715013%" x2="75.5102041%" y2="100%" id="linearGradient-4">
            <stop stop-color="#A051FF" stop-opacity="0" offset="0%"></stop>
            <stop stop-color="#A051FF" stop-opacity="0.3" offset="100%"></stop>
        </linearGradient>
        <linearGradient x1="50%" y1="0%" x2="50%" y2="99.4154283%" id="linearGradient-5">
            <stop stop-color="#302647" stop-opacity="0.8" offset="0%"></stop>
            <stop stop-color="#302647" stop-opacity="0.1" offset="100%"></stop>
        </linearGradient>
    </defs>
    <g id="中占位符/应用浅色背景" stroke="none" stroke-width="1" fill="none" fill-rule="evenodd">
        <rect id="矩形" x="0" y="0" width="96" height="96"></rect>
        <g id="编组-9" transform="translate(8.000000, 12.000000)">
            <path d="M24.9442719,51 L55.0557281,51 C55.6767085,51 56.2891607,51.1445804 56.8445825,51.4222912 L76,61 L76,61 L4,61 L23.1554175,51.4222912 C23.7108393,51.1445804 24.3232915,51 24.9442719,51 Z" id="矩形" fill="url(#linearGradient-1)"></path>
            <path d="M76,61 L76,71 C76,72.1045695 75.1045695,73 74,73 L6,73 C4.8954305,73 4,72.1045695 4,71 L4,61 L76,61 Z M14.8780157,64 L9.90441176,64 C9.74485294,64 9.58946324,64.019 9.44117647,64.055 C8.76125,64.22 8.22647059,64.74 8.05666912,65.4 C8.01961029,65.544 8,65.695 8,65.85 L8,65.85 L8,68.15 C8,68.305 8.01961029,68.456 8.05666912,68.6 C8.22698529,69.26 8.76181618,69.7795 9.44117647,69.945 C9.58946324,69.981 9.74485294,70 9.90441176,70 L9.90441176,70 L14.8780157,70 C14.9453858,70 15,69.9453858 15,69.8780157 L15,69.8780157 L15,69.0879371 C14.9999957,68.8184586 14.7815414,68.6000024 14.5120629,68.5999957 L14.5120629,68.5999957 L9.99526207,68.5999559 C9.902098,68.598944 9.71537044,68.5800896 9.60478767,68.4999322 C9.49285143,68.4187938 9.45264867,68.2803693 9.44287861,68.2306326 L9.44287861,68.2306326 L9.44117647,68.221 L9.44114865,67.6999796 L13.2767688,67.6999977 L13.2767688,67.6999977 L13.3644784,67.6921387 C13.5921002,67.6508241 13.7647079,67.4516009 13.7647059,67.2120629 L13.7647059,67.2120629 L13.7647059,66.4219843 C13.7647056,66.3546143 13.7100915,66.3000002 13.6427216,66.2999997 L13.6427216,66.2999997 L9.44114865,66.2999898 L9.44117647,65.9155 C9.44117647,65.6495967 9.52816176,65.554 9.62698529,65.4835 C9.68622794,65.441 9.76229383,65.4116164 9.83893354,65.4001164 L9.83893354,65.4001164 L9.82435135,65.3999898 L14.5120629,65.399999 L14.5120629,65.399999 C14.7815441,65.4 15.000001,65.1815431 15,64.9120629 L15,64.9120629 L15,64.1219843 C15,64.0546142 14.9453858,64 14.8780157,64 L14.8780157,64 Z M67.5,66 L62.5,66 C62.2545401,66 62.0503916,66.1768752 62.0080557,66.4101244 L62,66.5 L62,67.5 C62,67.7454599 62.1768752,67.9496084 62.4101244,67.9919443 L62.5,68 L67.5,68 C67.7454599,68 67.9496084,67.8231248 67.9919443,67.5898756 L68,67.5 L68,66.5 C68,66.2238576 67.7761424,66 67.5,66 Z M71.5,66 L70.5,66 C70.2545401,66 70.0503916,66.1768752 70.0080557,66.4101244 L70,66.5 L70,67.5 C70,67.7454599 70.1768752,67.9496084 70.4101244,67.9919443 L70.5,68 L71.5,68 C71.7454599,68 71.9496084,67.8231248 71.9919443,67.5898756 L72,67.5 L72,66.5 C72,66.2238576 71.7761424,66 71.5,66 Z" id="形状结合" fill="url(#linearGradient-2)"></path>
            <polygon id="矩形" fill="url(#linearGradient-3)" points="5.00152927 60.5 74.9992617 60.5 76 61 76 61.5 4 61.5 4 61"></polygon>
            <g id="编组-8" transform="translate(0.000000, 0.000000)" fill="url(#linearGradient-4)">
                <polygon id="路径-11" points="40 56 2.04698758e-12 36 40 -2.2950953e-13"></polygon>
                <polygon id="路径-11备份" transform="translate(60.000000, 28.000000) scale(-1, 1) translate(-60.000000, -28.000000) " points="80 56 40 36 80 -2.2950953e-13"></polygon>
                <polygon id="路径-11备份-2" points="40 56 1.24911193e-12 12.0618802 40 -2.2950953e-13"></polygon>
                <polygon id="路径-11备份-4" points="40 56 20 3.23852056e-13 60 8.59508015e-13"></polygon>
                <polygon id="路径-11备份-3" transform="translate(60.000000, 28.000000) scale(-1, 1) translate(-60.000000, -28.000000) " points="80 56 40 12.0618802 80 -2.2950953e-13"></polygon>
            </g>
            <g id="二级导航/应用开发" transform="translate(16.000000, 0.000000)">
                <rect id="矩形" x="0" y="0" width="48" height="48"></rect>
                <path d="M24.2,4.11547005 L41.1205081,13.8845299 C41.2442685,13.9559831 41.3205081,14.0880339 41.3205081,14.2309401 L41.3205081,33.7690599 C41.3205081,33.9119661 41.2442685,34.0440169 41.1205081,34.1154701 L24.2,43.8845299 C24.0762396,43.9559831 23.9237604,43.9559831 23.8,43.8845299 L6.87949192,34.1154701 C6.75573149,34.0440169 6.67949192,33.9119661 6.67949192,33.7690599 L6.67949192,14.2309401 C6.67949192,14.0880339 6.75573149,13.9559831 6.87949192,13.8845299 L23.8,4.11547005 C23.9237604,4.04401694 24.0762396,4.04401694 24.2,4.11547005 Z M31.4142136,16.9289322 C30.633165,16.1478836 29.366835,16.1478836 28.5857864,16.9289322 C27.8047379,17.7099808 27.8047379,18.9763107 28.5857864,19.7573593 L28.5857864,19.7573593 L32.8284271,24 L28.5857864,28.2426407 C27.8047379,29.0236893 27.8047379,30.2900192 28.5857864,31.0710678 C29.366835,31.8521164 30.633165,31.8521164 31.4142136,31.0710678 L31.4142136,31.0710678 L37.0710678,25.4142136 C37.8521164,24.633165 37.8521164,23.366835 37.0710678,22.5857864 L37.0710678,22.5857864 Z M16.5857864,16.9289322 L10.9289322,22.5857864 C10.1478836,23.366835 10.1478836,24.633165 10.9289322,25.4142136 L16.5857864,31.0710678 C17.366835,31.8521164 18.633165,31.8521164 19.4142136,31.0710678 C20.1952621,30.2900192 20.1952621,29.0236893 19.4142136,28.2426407 L15.1715729,24.0014142 L19.4142136,19.7573593 C20.1952621,18.9763107 20.1952621,17.7099808 19.4142136,16.9289322 C18.633165,16.1478836 17.366835,16.1478836 16.5857864,16.9289322 Z" id="形状结合" fill="url(#linearGradient-5)"></path>
            </g>
        </g>
    </g>
</svg>

<svg width="96" height="96" viewBox="0 0 96 96" xmlns="http://www.w3.org/2000/svg"><defs><linearGradient x1="50%" y1=".492%" x2="50%" y2="100%" id="a"><stop stop-color="#302647" stop-opacity="0" offset="0%"/><stop stop-color="#302647" stop-opacity=".3" offset="100%"/></linearGradient><linearGradient x1="100%" y1="50%" x2="0%" y2="50%" id="b"><stop stop-color="#302647" stop-opacity=".04" offset="0%"/><stop stop-color="#302647" stop-opacity=".4" offset="100%"/></linearGradient><linearGradient x1="100%" y1="50%" x2="0%" y2="50%" id="c"><stop stop-color="#FFF" stop-opacity="0" offset="0%"/><stop stop-color="#FFF" stop-opacity=".2" offset="100%"/></linearGradient><linearGradient x1="45.695%" y1="38.715%" x2="75.51%" y2="100%" id="d"><stop stop-color="#A051FF" stop-opacity="0" offset="0%"/><stop stop-color="#A051FF" stop-opacity=".3" offset="100%"/></linearGradient><linearGradient x1="50%" y1="0%" x2="50%" y2="99.415%" id="e"><stop stop-color="#302647" stop-opacity=".8" offset="0%"/><stop stop-color="#302647" stop-opacity=".1" offset="100%"/></linearGradient></defs><g fill="none" fill-rule="evenodd"><path d="M0 0h96v96H0z"/><path d="M24.944 51h30.112a4 4 0 0 1 1.789.422L76 61H4l19.155-9.578a4 4 0 0 1 1.79-.422z" fill="url(#a)" transform="translate(8 12)"/><path d="M76 61v10a2 2 0 0 1-2 2H6a2 2 0 0 1-2-2V61h72zm-61.122 3H9.904c-.16 0-.315.019-.463.055A1.881 1.881 0 0 0 8.057 65.4a1.805 1.805 0 0 0-.057.45v2.3c0 .155.02.306.057.45.17.66.705 1.18 1.384 1.345.148.036.304.055.463.055h4.974a.122.122 0 0 0 .122-.122v-.79a.488.488 0 0 0-.488-.488H9.995c-.093-.001-.28-.02-.39-.1a.459.459 0 0 1-.162-.27l-.002-.009V67.7h3.836l.087-.008c.228-.041.4-.24.4-.48v-.79a.122.122 0 0 0-.121-.122H9.44v-.385c0-.265.087-.361.186-.431a.497.497 0 0 1 .212-.084h-.015 4.688c.27 0 .488-.218.488-.488v-.79a.122.122 0 0 0-.122-.122zM67.5 66h-5a.5.5 0 0 0-.492.41L62 66.5v1a.5.5 0 0 0 .41.492l.09.008h5a.5.5 0 0 0 .492-.41L68 67.5v-1a.5.5 0 0 0-.5-.5zm4 0h-1a.5.5 0 0 0-.492.41L70 66.5v1a.5.5 0 0 0 .41.492l.09.008h1a.5.5 0 0 0 .492-.41L72 67.5v-1a.5.5 0 0 0-.5-.5z" fill="url(#b)" transform="translate(8 12)"/><path fill="url(#c)" d="M5.002 60.5h69.997L76 61v.5H4V61z" transform="translate(8 12)"/><g transform="translate(8 12)" fill="url(#d)"><path d="M40 56L0 36 40 0zM40 56l40-20L40 0z"/><path d="M40 56L0 12.062 40 0z"/><path d="M40 56L20 0h40z"/><path d="M40 56l40-43.938L40 0z"/></g><path d="M24 12h48v48H24z"/><path d="M24.2 4.115l16.92 9.77a.4.4 0 0 1 .2.346v19.538a.4.4 0 0 1-.2.346l-16.92 9.77a.4.4 0 0 1-.4 0l-16.92-9.77a.4.4 0 0 1-.2-.346V14.231a.4.4 0 0 1 .2-.346l16.92-9.77a.4.4 0 0 1 .4 0zm7.214 12.814a2 2 0 0 0-2.828 2.828L32.828 24l-4.242 4.243a2 2 0 0 0 2.828 2.828l5.657-5.657a2 2 0 0 0 0-2.828zm-14.828 0l-5.657 5.657a2 2 0 0 0 0 2.828l5.657 5.657a2 2 0 0 0 2.828-2.828L15.172 24l4.242-4.244a2 2 0 0 0-2.828-2.828z" fill="url(#e)" transform="translate(24 12)"/></g></svg>
